lib/flags/m/MNE.svg

<svg xmlns="http://www.w3.org/2000/svg" fill="none" viewBox="0 0 20 15"><mask id="MNE_svg__a" width="20" height="15" x="0" y="0" mask-type="alpha" maskUnits="userSpaceOnUse"><path fill="#fff" d="M0 0H20V15H0z"/></mask><g mask="url(#MNE_svg__a)"><path fill="#E8AA00" fill-rule="evenodd" d="M0 0H20V15H0V0Z" clip-rule="evenodd"/><path fill="#C51918" fill-rule="evenodd" d="M2 2H18V13H2V2Z" clip-rule="evenodd"/><mask id="MNE_svg__b" width="16" height="11" x="2" y="2" mask-type="alpha" maskUnits="userSpaceOnUse"><path fill="#fff" fill-rule="evenodd" d="M2 2H18V13H2V2Z" clip-rule="evenodd"/></mask><g mask="url(#MNE_svg__b)"><path fill="#1E5E91" fill-rule="evenodd" d="M12.6442 9.84463C12.8991 9.84463 13.1058 9.63287 13.1058 9.37165C13.1058 9.11044 12.8991 8.89868 12.6442 8.89868C12.3893 8.89868 12.1827 9.11044 12.1827 9.37165C12.1827 9.63287 12.3893 9.84463 12.6442 9.84463Z" clip-rule="evenodd"/><path fill="#F6C540" fill-rule="evenodd" d="M6.64224 7.70742C5.43147 6.30026 7.16678 3.85828 7.16678 3.85828C7.16678 3.85828 7.42621 5.31675 8.38643 6.29816C8.38643 6.36784 8.29575 6.47066 8.20395 6.57476C8.13984 6.64746 8.07518 6.72078 8.04046 6.78388C7.95604 6.93733 8.24587 7.02479 8.38643 7.02479C8.44952 7.02479 8.48437 7.11628 8.51583 7.19886C8.55447 7.30026 8.58798 7.38821 8.66235 7.27679C8.79729 7.07462 8.52741 6.63043 8.52741 6.63043L8.95464 6.17981L9.09912 5.88851H8.95464V5.58861L8.8534 5.67174C8.8534 5.67174 8.74232 5.40359 8.52741 5.40359C8.3125 5.40359 8.24587 5.28097 8.24587 5.28097H8.52741C8.66839 5.28097 8.50488 5.09416 8.38643 4.99685C8.33333 4.95323 8.25279 4.96827 8.18007 4.98185C8.09056 4.99856 8.01292 5.01305 8.01292 4.91323C8.01292 4.80381 8.09811 4.78931 8.19655 4.77256C8.26088 4.76161 8.33087 4.7497 8.38643 4.7097C8.47832 4.64354 8.60216 4.66388 8.73623 4.6859C8.80724 4.69757 8.88112 4.7097 8.95464 4.7097H9.30274C9.42844 4.7097 9.09912 4.91323 9.09912 4.91323L9.30274 5.09416L9.60554 5.40359L9.45411 5.49347L9.76657 5.79647C9.76657 5.79647 9.66051 5.96892 9.76657 5.96892C9.81029 5.96892 9.83906 6.00475 9.85777 6.04687C9.87649 6.00475 9.90525 5.96892 9.94897 5.96892C10.055 5.96892 9.94897 5.79647 9.94897 5.79647L10.2614 5.49347L10.11 5.40359L10.4128 5.09416L10.6164 4.91323C10.6164 4.91323 10.2871 4.7097 10.4128 4.7097H10.7609C10.8344 4.7097 10.9083 4.69757 10.9793 4.6859C11.1134 4.66388 11.2372 4.64354 11.3291 4.7097C11.3847 4.7497 11.4547 4.76161 11.519 4.77256C11.6174 4.78931 11.7026 4.80381 11.7026 4.91323C11.7026 5.01305 11.625 4.99856 11.5355 4.98185C11.4628 4.96827 11.3822 4.95323 11.3291 4.99685C11.2107 5.09416 11.0472 5.28097 11.1881 5.28097H11.4697C11.4697 5.28097 11.403 5.40359 11.1881 5.40359C10.9732 5.40359 10.8621 5.67174 10.8621 5.67174L10.7609 5.58861V5.88851H10.6164L10.7609 6.17981L11.1881 6.63043C11.1881 6.63043 10.9183 7.07462 11.0532 7.27679C11.1276 7.38821 11.1611 7.30026 11.1997 7.19886C11.2312 7.11628 11.266 7.02479 11.3291 7.02479C11.4697 7.02479 11.7595 6.93733 11.6751 6.78388C11.6404 6.72078 11.5757 6.64746 11.5116 6.57476C11.4198 6.47066 11.3291 6.36784 11.3291 6.29816C12.2893 5.31675 12.5488 3.85828 12.5488 3.85828C12.5488 3.85828 14.2841 6.30026 13.0733 7.70742C11.8625 9.11457 10.9732 8.69025 10.9732 8.69025L11.4697 9.13543L11.3291 9.25707H11.7428L11.5907 9.35877L11.7026 9.40781L11.8212 9.45972C11.8212 9.45972 11.5016 9.69469 11.8212 9.69469C11.8716 9.69469 11.9251 9.69321 11.9801 9.69168C12.0403 9.69 12.1025 9.68827 12.1646 9.68839C12.1813 9.68843 12.1439 9.59633 12.1068 9.50501C12.0703 9.41489 12.034 9.32554 12.0503 9.32624C12.0849 9.32772 12.1527 9.40964 12.2208 9.49184C12.2751 9.55737 12.3295 9.62308 12.3673 9.64837C12.3917 9.66466 12.4868 9.63162 12.575 9.60101C12.6495 9.57512 12.719 9.55097 12.7366 9.55983C12.8109 9.59733 12.7919 9.67322 12.7738 9.74548C12.7691 9.76406 12.7645 9.7824 12.7616 9.79978C12.759 9.81559 12.8541 9.75385 12.9542 9.68891C13.0593 9.62072 13.1699 9.549 13.1783 9.55983C13.1801 9.56211 13.182 9.56442 13.184 9.56681C13.2197 9.60981 13.2773 9.67909 12.8523 10.0067C12.8523 10.0696 12.8546 10.121 12.8564 10.1628C12.8622 10.2968 12.8637 10.3315 12.7729 10.3315C12.7325 10.3315 12.6759 10.3516 12.6103 10.3748C12.4422 10.4344 12.2152 10.5149 12.0503 10.3315C11.8212 10.0767 11.4697 9.69469 11.4697 9.69469V9.88243L11.0532 9.45972L10.9732 9.69469L10.4128 9.051L10.2614 9.13543C10.2614 9.13543 10.7773 10.559 11.0532 10.5689C11.1903 10.5738 10.9821 10.7069 10.7063 10.8831C10.4271 11.0616 10.0786 11.2843 9.94897 11.4632C9.91039 11.5164 9.88058 11.4352 9.85777 11.2587C9.83497 11.4352 9.80516 11.5164 9.76657 11.4632C9.63694 11.2843 9.28845 11.0616 9.00924 10.8831C8.73344 10.7069 8.52524 10.5738 8.66235 10.5689C8.93827 10.559 9.45411 9.13543 9.45411 9.13543L9.30274 9.051L8.74232 9.69469L8.66235 9.45972L8.24587 9.88243V9.69469C8.24587 9.69469 7.89439 10.0767 7.66522 10.3315C7.50035 10.5149 7.27332 10.4344 7.10522 10.3748C7.03966 10.3516 6.98307 10.3315 6.94262 10.3315C6.79844 10.3315 6.75018 10.1298 6.94262 9.88243C7.10468 9.67414 7.44214 9.68352 7.73549 9.69168C7.79049 9.69321 7.84394 9.69469 7.89439 9.69469C8.21392 9.69469 7.89439 9.45972 7.89439 9.45972L8.01292 9.40781L8.12489 9.35877L7.97279 9.25707H8.38643L8.24587 9.13543L8.74232 8.69025C8.74232 8.69025 7.85301 9.11457 6.64224 7.70742Z" clip-rule="evenodd"/><path fill="#F6C540" fill-rule="evenodd" d="M7.7707 10.6439L7.22375 9.68505C7.22375 9.68505 6.50864 8.03624 6.50864 7.83605C6.50864 7.63587 6.22076 7.04306 6.22076 7.21514C6.22076 7.38722 6.22076 7.83605 6.22076 7.83605L7.42731 10.5542V10.7683H7.58979L7.7707 10.6439Z" clip-rule="evenodd"/><path fill="#F6C540" d="M12.1512 9.3531L12.2344 9.0769L13.2505 9.38305L13.1673 9.65925L12.1512 9.3531Z"/><path fill="#F6C540" d="M12.6924 8.85022L12.9672 8.94017L12.6987 9.80143L12.424 9.71148L12.6924 8.85022Z"/><path fill="#F6C540" fill-rule="evenodd" d="M12.9483 8.56937 12.8892 8.55591 12.8652 8.65092 12.7567 8.62427 12.7433 8.68225 12.8507 8.7086 12.8233 8.8169 12.8824 8.83036 12.9095 8.72304 13.0163 8.74927 13.0296 8.69128 12.9241 8.66536 12.9483 8.56937zM9.80902 3.26404 9.83872 3.36767H9.92897L9.95867 3.26404C10.0338 3.28664 10.1019 3.31236 10.1629 3.34107L10.165 3.31838C10.6474 3.36244 10.8978 3.56437 10.8709 3.91939 10.8487 4.21326 10.7 4.36722 10.4519 4.36328V4.58279C10.4519 4.58279 10.0481 4.73782 9.84616 4.73782 9.64424 4.73782 9.24039 4.58279 9.24039 4.58279V4.35957C9.03616 4.33431 8.9142 4.18325 8.89426 3.91939 8.86743 3.56437 9.11775 3.36244 9.60014 3.31838L9.60236 3.3422C9.66402 3.31303 9.73295 3.28694 9.80902 3.26404zM9.29832 4.16672C9.27113 4.17433 9.25202 4.17994 9.24426 4.18225 9.13351 4.16148 9.07944 4.07299 9.06688 3.90675 9.05418 3.73868 9.13314 3.62175 9.31933 3.55431 9.19231 3.71689 9.18299 3.92369 9.29832 4.16672zM9.47029 4.12192C9.57207 4.09747 9.68984 4.07315 9.78418 4.0648V3.45813C9.39679 3.59408 9.30372 3.80207 9.47029 4.12192zM9.95726 4.07025C10.0871 4.08727 10.2447 4.12627 10.3466 4.1537L10.2955 4.12552C10.4684 3.7965 10.3681 3.58539 9.95726 3.44917V4.07025zM10.4494 3.55559C10.5789 3.72249 10.5848 3.93583 10.4595 4.18702 10.6121 4.18931 10.6836 4.10124 10.6983 3.90675 10.7109 3.73974 10.633 3.62322 10.4494 3.55559z" clip-rule="evenodd"/><path fill="#3D58DB" fill-rule="evenodd" d="M9.84615 3.4495C9.95767 3.4495 10.0481 3.3591 10.0481 3.24758C10.0481 3.13606 9.95767 3.04565 9.84615 3.04565C9.73463 3.04565 9.64423 3.13606 9.64423 3.24758C9.64423 3.3591 9.73463 3.4495 9.84615 3.4495Z" clip-rule="evenodd"/><path fill="#F6C540" fill-rule="evenodd" d="M9.87428 2.81138L9.81371 2.8126L9.81341 2.9106L9.70163 2.911L9.70271 2.97049L9.81322 2.9701L9.81287 3.08179L9.87344 3.08057L9.87378 2.96988L9.98375 2.96949L9.98266 2.91L9.87397 2.91039L9.87428 2.81138Z" clip-rule="evenodd"/><path fill="#1E5E91" fill-rule="evenodd" d="M8.72116 6.47464C8.72116 6.47464 9.43221 6.34045 9.81731 6.34045C10.163 6.34045 10.9135 6.47464 10.9135 6.47464C10.9135 7.32467 11.1527 7.84508 10.9135 8.42565C10.6743 9.00623 10.0897 8.72715 9.82511 9.28272C9.48698 8.75575 9.03033 9.04582 8.72116 8.29543C8.41199 7.54504 8.90912 7.19943 8.72116 6.47464Z" clip-rule="evenodd"/><mask id="MNE_svg__c" width="4" height="4" x="8" y="6" mask-type="alpha" maskUnits="userSpaceOnUse"><path fill="#fff" fill-rule="evenodd" d="M8.72116 6.47464C8.72116 6.47464 9.43221 6.34045 9.81731 6.34045C10.163 6.34045 10.9135 6.47464 10.9135 6.47464C10.9135 7.32467 11.1527 7.84508 10.9135 8.42565C10.6743 9.00623 10.0897 8.72715 9.82511 9.28272C9.48698 8.75575 9.03033 9.04582 8.72116 8.29543C8.41199 7.54504 8.90912 7.19943 8.72116 6.47464Z" clip-rule="evenodd"/></mask><g mask="url(#MNE_svg__c)"><path fill="#5EAA22" d="M8.721 8.248H10.913V9.312H8.721z"/><path fill="#F6C540" fill-rule="evenodd" d="M9.36934 6.89357C9.28556 6.71553 9.80953 6.69482 9.80953 6.69482C9.80953 6.69482 9.92252 6.89357 9.80953 7.17638C9.72736 7.38205 9.86441 7.36371 10.0535 7.3384C10.1244 7.32891 10.2026 7.31844 10.2794 7.31844C10.3969 7.31844 10.4588 7.30982 10.5102 7.32913C10.5818 7.35603 10.633 7.43716 10.7861 7.67144C10.8561 7.77842 10.853 7.84886 10.8108 7.89099C10.8145 7.99981 10.696 8.09002 10.4771 8.14777L10.4484 8.03326C10.5641 8.00272 10.635 7.9735 10.668 7.94122C10.503 7.95127 10.2794 7.86972 10.2794 7.76496C10.2794 7.61003 9.75129 7.64265 9.43349 7.66228C9.35254 7.66728 9.28524 7.67144 9.24378 7.67144C9.05895 7.67144 9.20067 7.44557 9.32963 7.24001C9.34314 7.21848 9.3565 7.19718 9.36934 7.17638C9.43558 7.06906 9.45706 7.04166 9.45192 7.02084C9.44655 6.99909 9.41214 6.98452 9.36934 6.89357ZM10.6263 6.86601C10.3097 6.81576 10.1321 6.86437 10.1321 7.0415C10.1321 7.21009 10.3006 7.2832 10.6089 7.28207C10.6209 7.28599 10.6314 7.28985 10.6404 7.29358C10.6289 7.29904 10.6148 7.30481 10.5983 7.31077L10.6366 7.42231C10.8309 7.35223 10.8309 7.22755 10.6342 7.16633L10.6258 7.16371L10.617 7.16378C10.3608 7.1659 10.2475 7.11785 10.2475 7.0415C10.2475 6.97204 10.355 6.94261 10.6086 6.98286L10.6263 6.86601Z" clip-rule="evenodd"/></g></g></g></svg>

<svg xmlns="http://www.w3.org/2000/svg" fill="none" viewBox="0 0 20 15"><mask id="MNE_svg__a" width="20" height="15" x="0" y="0" maskUnits="userSpaceOnUse"><path fill="#fff" d="M0 0h20v15H0z"/></mask><g mask="url(#MNE_svg__a)"><path fill="#E8AA00" fill-rule="evenodd" d="M0 0h20v15H0V0z" clip-rule="evenodd"/><path fill="#C51918" fill-rule="evenodd" d="M2 2h16v11H2V2z" clip-rule="evenodd"/><mask id="MNE_svg__b" width="16" height="11" x="2" y="2" maskUnits="userSpaceOnUse"><path fill="#fff" fill-rule="evenodd" d="M2 2h16v11H2V2z" clip-rule="evenodd"/></mask><g mask="url(#MNE_svg__b)"><path fill="#1E5E91" fill-rule="evenodd" d="M12.644 9.845a.467.467 0 00.462-.473.467.467 0 00-.462-.473.467.467 0 00-.461.473c0 .26.206.473.461.473z" clip-rule="evenodd"/><path fill="#F6C540" fill-rule="evenodd" d="M6.642 7.707c-1.21-1.407.525-3.849.525-3.849s.26 1.459 1.22 2.44c0 .07-.091.173-.183.277a1.36 1.36 0 00-.164.209c-.084.153.206.24.346.24.064 0 .098.092.13.175.038.101.072.19.146.078.135-.202-.135-.647-.135-.647l.428-.45.144-.292h-.144v-.3l-.102.084s-.11-.268-.326-.268c-.214 0-.281-.123-.281-.123h.281c.141 0-.022-.187-.14-.284-.054-.044-.134-.029-.207-.015-.09.017-.167.031-.167-.069 0-.11.085-.124.184-.14a.445.445 0 00.19-.063c.091-.066.215-.046.35-.024.07.012.144.024.218.024h.348c.125 0-.204.203-.204.203l.204.181.303.31-.152.09.313.302s-.106.173 0 .173c.043 0 .072.036.09.078.02-.042.048-.078.092-.078.106 0 0-.173 0-.173l.312-.303-.151-.09.303-.309.203-.18s-.329-.204-.203-.204h.348c.073 0 .147-.012.218-.024.134-.022.258-.042.35.024.056.04.126.052.19.063.098.016.184.03.184.14 0 .1-.078.086-.167.069-.073-.014-.154-.029-.207.015-.118.097-.282.284-.14.284h.28s-.066.123-.28.123c-.216 0-.327.268-.327.268l-.101-.083v.3h-.145l.145.29.427.451s-.27.445-.135.647c.075.111.108.023.147-.078.031-.083.066-.174.13-.174.14 0 .43-.088.345-.241-.035-.063-.1-.137-.163-.21-.092-.103-.183-.206-.183-.276.96-.981 1.22-2.44 1.22-2.44s1.735 2.442.524 3.85c-1.21 1.407-2.1.982-2.1.982l.497.445-.14.122h.413l-.152.102.112.049.118.052s-.32.235 0 .235l.16-.003c.06-.002.121-.004.184-.004.016 0-.021-.092-.058-.183-.037-.09-.073-.18-.057-.179.035.002.103.084.17.166.055.065.11.131.147.156.025.017.12-.016.208-.047.075-.026.144-.05.162-.041.074.037.055.113.037.185a.69.69 0 00-.012.055c-.003.016.092-.046.192-.111.105-.068.216-.14.224-.13a.372.372 0 00.006.008c.036.043.093.112-.332.44 0 .063.003.114.004.156.006.134.008.168-.083.168-.04 0-.097.02-.163.044-.168.06-.395.14-.56-.043-.229-.255-.58-.637-.58-.637v.187l-.417-.422-.08.235-.56-.644-.152.084s.516 1.424.792 1.434c.137.005-.07.138-.347.314-.279.179-.627.401-.757.58-.039.053-.068-.028-.091-.204-.023.176-.053.257-.091.204-.13-.179-.479-.401-.758-.58-.276-.176-.484-.31-.347-.314.276-.01.792-1.434.792-1.434l-.151-.084-.56.644-.08-.235-.417.422v-.187s-.352.382-.58.636c-.166.184-.393.103-.56.044-.066-.023-.123-.043-.163-.043-.145 0-.193-.202 0-.45.162-.208.5-.198.792-.19l.16.003c.319 0 0-.235 0-.235l.118-.052.112-.05-.152-.101h.413l-.14-.122.496-.445s-.889.425-2.1-.983z" clip-rule="evenodd"/><path fill="#F6C540" fill-rule="evenodd" d="M7.77 10.644l-.546-.959s-.715-1.649-.715-1.849c0-.2-.288-.793-.288-.62v.62l1.206 2.718v.214h.163l.18-.124z" clip-rule="evenodd"/><path fill="#F6C540" d="M12.151 9.353l.083-.276 1.017.306-.084.276-1.016-.306z"/><path fill="#F6C540" d="M12.692 8.85l.275.09-.268.861-.275-.09.268-.86z"/><path fill="#F6C540" fill-rule="evenodd" d="M12.948 8.57l-.059-.014-.024.095-.108-.027-.014.058.108.027-.028.108.06.013.027-.107.106.026.014-.058-.106-.026.024-.096zM9.809 3.264l.03.104h.09l.03-.104c.075.023.143.048.204.077l.002-.023c.482.044.733.246.706.601-.022.294-.171.448-.42.444v.22s-.403.155-.605.155c-.202 0-.606-.155-.606-.155V4.36c-.204-.026-.326-.177-.346-.44-.027-.356.224-.558.706-.602l.002.024c.062-.029.13-.055.207-.078zm-.51.903a3.753 3.753 0 00-.055.015c-.11-.02-.165-.109-.177-.275-.013-.168.066-.285.252-.353-.127.163-.136.37-.02.613zm.171-.045a2.34 2.34 0 01.314-.057v-.607c-.387.136-.48.344-.314.664zm.487-.052c.13.017.288.056.39.084l-.051-.029c.172-.329.072-.54-.339-.676v.621zm.492-.514c.13.166.136.38.01.631.153.002.225-.086.24-.28.012-.167-.066-.284-.25-.351z" clip-rule="evenodd"/><path fill="#3D58DB" fill-rule="evenodd" d="M9.846 3.45a.202.202 0 100-.404.202.202 0 000 .403z" clip-rule="evenodd"/><path fill="#F6C540" fill-rule="evenodd" d="M9.874 2.811l-.06.002v.098h-.112v.06h.111v.11h.06V2.97h.11v-.06h-.109v-.099z" clip-rule="evenodd"/><path fill="#1E5E91" fill-rule="evenodd" d="M8.721 6.475s.711-.135 1.096-.135c.346 0 1.097.135 1.097.135 0 .85.239 1.37 0 1.95-.24.581-.824.302-1.089.858-.338-.527-.795-.237-1.104-.988-.309-.75.188-1.096 0-1.82z" clip-rule="evenodd"/><mask id="MNE_svg__c" width="4" height="4" x="8" y="6" maskUnits="userSpaceOnUse"><path fill="#fff" fill-rule="evenodd" d="M8.721 6.475s.711-.135 1.096-.135c.346 0 1.097.135 1.097.135 0 .85.239 1.37 0 1.95-.24.581-.824.302-1.089.858-.338-.527-.795-.237-1.104-.988-.309-.75.188-1.096 0-1.82z" clip-rule="evenodd"/></mask><g mask="url(#MNE_svg__c)"><path fill="#5EAA22" d="M8.721 8.248h2.192v1.064H8.721z"/><path fill="#F6C540" fill-rule="evenodd" d="M9.37 6.894c-.084-.178.44-.2.44-.2s.113.2 0 .482c-.083.206.054.188.243.162.071-.01.15-.02.226-.02.118 0 .18-.008.231.011.072.027.123.108.276.342.07.107.067.178.025.22.004.109-.115.199-.334.257l-.029-.115c.116-.03.187-.06.22-.092-.165.01-.389-.071-.389-.176 0-.155-.528-.122-.846-.103-.08.005-.148.01-.19.01-.184 0-.042-.226.087-.432l.04-.064c.066-.107.087-.134.082-.155-.005-.022-.04-.037-.083-.127zm1.256-.028c-.316-.05-.494-.002-.494.175 0 .17.169.242.477.241a.43.43 0 01.031.012.48.48 0 01-.042.017l.039.111c.194-.07.194-.194-.003-.256l-.008-.002h-.009c-.256.002-.37-.046-.37-.123 0-.069.108-.098.362-.058l.017-.117z" clip-rule="evenodd"/></g></g></g></svg>
